X:1459
L:1/8
Q:1/8=180
M:6/8
K:A
|: e a2 e c2 | eag fed | caf f f2 | efa g f2 | e a2 e c2 | eag fed | c d2 e f2 | efa c B2 :: 
 AcA AeA | AcA Aed | cdB BfB | BdB Bfe | dcA AeA | AcA Aed | c d2 e f2 | efa c B2 :|

